icons/icn_flex.svg

<svg width="24" xmlns="http://www.w3.org/2000/svg" height="24" id="screenshot-f0c19275-75b4-80fc-8006-675b7df73576" viewBox="0 0 24 24" xmlns:xlink="http://www.w3.org/1999/xlink" fill="none" version="1.1"><g id="shape-f0c19275-75b4-80fc-8006-675b7df73576"><g class="frame-container-wrapper"><g class="frame-container-blur"><g class="frame-container-shadows"><g fill="none"><g class="fills" id="fills-f0c19275-75b4-80fc-8006-675b7df73576"><rect rx="0" ry="0" x="0" y="0" width="24" height="24.000000000000455" transform="matrix(1, 0, 0, 1, 0, 0)" class="frame-background"/></g><g class="frame-children"><g id="shape-be466c77-793b-8004-8006-675b65413c7e" width="24" height="24" version="1.1" rx="0" ry="0" style="fill: rgb(0, 0, 0);"><g id="shape-be466c77-793b-8004-8006-675b65449cfe" style="opacity: 1;"><g class="fills" id="fills-be466c77-793b-8004-8006-675b65449cfe"><path d="M17.10378074645996,6.99169921875C16.87599754333496,6.966796875,16.64797019958496,7.03271484375,16.46901512145996,7.17529296875C16.28810691833496,7.318359375,16.17189598083496,7.52685546875,16.14504051208496,7.7557373046875C16.11940574645996,7.9840087890625,16.18483543395996,8.2137451171875,16.32790184020996,8.39404296875L18.50734519958496,11.1322021484375L13.140645980834961,11.1322021484375L5.625020980834961,11.1322021484375L7.662374496459961,8.4097900390625C7.946554183959961,8.0260009765625,7.867208480834961,7.484375,7.484395980834961,7.1988525390625C7.300802230834961,7.062255859375,7.070089340209961,7.004150390625,6.844015121459961,7.036865234375C6.616964340209961,7.069580078125,6.413106918334961,7.19140625,6.275655746459961,7.3746337890625L3.20290207862854,11.4796142578125C3.12257981300354,11.5931396484375,3.06984543800354,11.724609375,3.05055832862854,11.862548828125C2.98610520362854,12.122802734375,3.04494309425354,12.398193359375,3.21120285987854,12.6085205078125L6.459249496459961,16.6826171875C6.601339340209961,16.863037109375,6.810811996459961,16.9793701171875,7.038595199584961,17.005615234375C7.267599105834961,17.0318603515625,7.497335433959961,16.9664306640625,7.677267074584961,16.8233642578125C8.051778793334961,16.5257568359375,8.115499496459961,15.9813232421875,7.818380355834961,15.6063232421875L5.632345199584961,12.8663330078125L13.140645980834961,12.8663330078125L18.51369285583496,12.8663330078125L16.48464012145996,15.591064453125C16.19948387145996,15.9739990234375,16.27809715270996,16.515625,16.65993309020996,16.8016357421875C17.04201316833496,17.0882568359375,17.58278465270996,17.0120849609375,17.87062644958496,16.6319580078125L20.93507957458496,12.5208740234375C21.00710105895996,12.4249267578125,21.05690574645996,12.315185546875,21.08351707458496,12.1983642578125C21.17043113708496,11.9234619140625,21.11501121520996,11.623046875,20.93507957458496,11.39794921875L17.68703269958496,7.3160400390625C17.54396629333496,7.1341552734375,17.33351707458496,7.0174560546875,17.10378074645996,6.99169921875Z" style="display: inline; stroke-linecap: round; stroke-linejoin: round; fill: rgb(0, 0, 0); fill-opacity: 1;"/></g></g></g></g></g></g></g></g></g></svg>

<svg fill="none" viewBox="0 0 24 24"><g class="frame-container-wrapper"><g class="frame-container-blur"><g class="frame-container-shadows"><g class="fills"><rect width="24" height="24" class="frame-background" rx="0" ry="0"/></g><g class="frame-children"><path fill="#000" d="M17.1038 6.9917a.867.867 0 0 0-.6348.1836.8683.8683 0 0 0-.324.5804.8708.8708 0 0 0 .1829.6383l2.1794 2.7382H5.625l2.0374-2.7224c.2842-.3838.2048-.9254-.178-1.211a.8647.8647 0 0 0-1.2087.1758l-3.0728 4.105a.8736.8736 0 0 0-.1523.383.8665.8665 0 0 0 .1606.746l3.248 4.074a.8645.8645 0 0 0 .5794.323.8672.8672 0 0 0 .6387-.1822c.3745-.2976.4382-.842.141-1.217l-2.186-2.74h12.8813l-2.029 2.7247a.8663.8663 0 0 0 .1753 1.2105.8661.8661 0 0 0 1.2107-.1696l3.0645-4.1111a.85.85 0 0 0 .1484-.3225.8647.8647 0 0 0-.1484-.8005L17.687 7.316a.8649.8649 0 0 0-.5833-.3243Z" class="fills"/></g></g></g></g></svg>
